X: 83
T: We Will Eat
C: Teton Sioux band 1911-1914
N: Derived from sioux083.krn
O: South Dakota, U.S.A.
N: Teton Sioux Music by Frances Densmore, 1918
Z: transcribed to **kern format by Craig Sapp
L: 1/8
M: 2/4
Q: 1/4=58
K: G clef=bass
%%linebreak <none>
E3// E// [I:setbarnb 1]| 
E> EE2 | 
E> E E3/ B,/ | 
B,2B,2- | 
B,2-(3:2:1B, E (3:2:1B,/ | 
B,> E (E/ B,3/) | 
(3(B, A,) A, (B,/ A,3/) | 
G,> G, E,/ E,3/ | 
E,3E, | 
G,2(3(G, E,) E, ||  
[M:3/4]G,> A, (A,< G,) (3(G, E,) E, ||  
[M:2/4]E,3G,/ G,/ | 
G,> A, (A,/ G,3/) | 
(G,/ E,/) E,/ E,/ (3(G, E,) E,- | 
E,4 | 
E,3E3// B,// | 
B,> E (E/ B,3/) | 
(3(B, A,) A, (B,/ A,3/) | 
G,> G, E,/ E,3/ | 
E,3E, | 
G,2(3(G, E,) E, ||  
[M:3/4]G,> A, (A,< G,) (3G, E, E, ||  
E,3G,/ G,/ [I:setbarnb 22]| 
G,> A, (A,/ G,3/) | 
(G,/ E,/) E,/ E,/ [I:setbarnb 23]| 
(3(G, E,) E,- | 
E,4 [I:setbarnb 24]| 
E,3 |]  



